public/assets/images/mission/03.svg

<svg width="61" height="60" viewBox="0 0 61 60" fill="none" xmlns="http://www.w3.org/2000/svg">
<path d="M14.7781 16.443L11.3469 19.8742L10.325 18.8523C9.96875 18.4961 9.39687 18.4961 9.04063 18.8523C8.68438 19.2086 8.68438 19.7805 9.04063 20.1367L10.7094 21.8055C10.8781 21.9742 11.1125 22.068 11.3563 22.068C11.6 22.068 11.825 21.9742 12.0031 21.8055L16.0719 17.7273C16.4281 17.3711 16.4281 16.7992 16.0719 16.443C15.7063 16.0867 15.125 16.0867 14.7781 16.443Z" fill="#615EFC"/>
<path d="M19.4375 20.0258H38.7593C39.2656 20.0258 39.6687 19.6227 39.6687 19.1164C39.6687 18.6102 39.2656 18.207 38.7593 18.207H19.4375C18.9312 18.207 18.5281 18.6102 18.5281 19.1164C18.5281 19.6227 18.9406 20.0258 19.4375 20.0258Z" fill="#615EFC"/>
<path d="M14.7781 26.7008L11.3469 30.132L10.325 29.1102C9.96875 28.7539 9.39687 28.7539 9.04063 29.1102C8.68438 29.4664 8.68438 30.0383 9.04063 30.3945L10.7094 32.0633C10.8781 32.232 11.1125 32.3258 11.3563 32.3258C11.6 32.3258 11.825 32.232 12.0031 32.0633L16.0719 27.9852C16.4281 27.6289 16.4281 27.057 16.0719 26.7008C15.7063 26.3445 15.125 26.3445 14.7781 26.7008Z" fill="#615EFC"/>
<path d="M19.4376 30.2797H33.3032C33.8095 30.2797 34.2126 29.8766 34.2126 29.3703C34.2126 28.8641 33.8095 28.4609 33.3032 28.4609H19.4376C18.9313 28.4609 18.5282 28.8641 18.5282 29.3703C18.5282 29.8766 18.9407 30.2797 19.4376 30.2797Z" fill="#615EFC"/>
<path d="M14.778 36.9547L11.3468 40.3859L10.3249 39.3641C9.96863 39.0078 9.39675 39.0078 9.0405 39.3641C8.68425 39.7203 8.68425 40.2922 9.0405 40.6484L10.7093 42.3172C10.878 42.4859 11.1124 42.5797 11.3561 42.5797C11.5999 42.5797 11.8249 42.4859 12.003 42.3172L16.0718 38.2391C16.428 37.8828 16.428 37.3109 16.0718 36.9547C15.7061 36.5984 15.1249 36.5984 14.778 36.9547Z" fill="#615EFC"/>
<path d="M19.4375 40.5375H27.8468C28.3531 40.5375 28.7562 40.1344 28.7562 39.6281C28.7562 39.1219 28.3531 38.7188 27.8468 38.7188H19.4375C18.9312 38.7188 18.5281 39.1219 18.5281 39.6281C18.5281 40.1344 18.9406 40.5375 19.4375 40.5375Z" fill="#615EFC"/>
<path d="M14.7781 47.2125L11.3469 50.6438L10.325 49.6219C9.96875 49.2656 9.39687 49.2656 9.04063 49.6219C8.68438 49.9781 8.68438 50.55 9.04063 50.9062L10.7094 52.575C10.8781 52.7438 11.1125 52.8375 11.3563 52.8375C11.6 52.8375 11.825 52.7438 12.0031 52.575L16.0719 48.4969C16.4281 48.1406 16.4281 47.5688 16.0719 47.2125C15.7063 46.8562 15.125 46.8562 14.7781 47.2125Z" fill="#615EFC"/>
<path d="M30.5751 48.9766H19.4376C18.9313 48.9766 18.5282 49.3797 18.5282 49.8859C18.5282 50.3922 18.9313 50.7953 19.4376 50.7953H30.5751C31.0813 50.7953 31.4844 50.3922 31.4844 49.8859C31.4844 49.3797 31.0813 48.9766 30.5751 48.9766Z" fill="#615EFC"/>
<path d="M57.575 43.5844L56.3281 43.05C56.5531 41.7844 56.5719 40.4813 56.3844 39.2156L57.6406 38.7188C58.1094 38.5312 58.3344 38.0063 58.1469 37.5375L56.8344 34.2469C56.7406 34.0219 56.5718 33.8438 56.3469 33.75C56.1219 33.6562 55.8781 33.6562 55.6531 33.7406L54.3969 34.2375C53.6656 33.1875 52.7562 32.25 51.7156 31.4906L52.25 30.2437C52.3437 30.0187 52.3531 29.775 52.2593 29.55C52.1656 29.325 51.9968 29.1469 51.7719 29.0531L48.5187 27.6562C48.0594 27.4594 47.525 27.675 47.3281 28.1344L46.7937 29.3813C46.4094 29.3156 46.025 29.2688 45.6406 29.2406V9.38438C45.6406 7.88438 44.4125 6.65625 42.9125 6.65625H37.0625C36.5187 5.01562 34.9906 3.825 33.1719 3.825H28.8687C28.4468 1.65 26.5156 0 24.2187 0C21.9219 0 19.9906 1.65 19.5687 3.825H15.2656C13.4468 3.825 11.9187 5.01562 11.375 6.65625H5.5156C4.0156 6.65625 2.78748 7.88438 2.78748 9.38438V57.2719C2.78748 58.7719 4.00623 60 5.5156 60H42.9125C44.4125 60 45.6406 58.7812 45.6406 57.2719V52.725C45.9219 52.7063 46.2125 52.6781 46.4937 52.6312L46.9906 53.8875C47.1312 54.2437 47.4781 54.4594 47.8344 54.4594C47.9469 54.4594 48.0593 54.4406 48.1719 54.3937L51.4625 53.0812C51.9312 52.8937 52.1562 52.3688 51.9687 51.9L51.4719 50.6437C52.5219 49.9125 53.4594 49.0031 54.2187 47.9719L55.4656 48.5063C55.925 48.7031 56.4594 48.4875 56.6562 48.0281L58.0531 44.775C58.1469 44.55 58.1562 44.3063 58.0625 44.0812C57.9687 43.8563 57.8 43.6781 57.575 43.5844ZM15.2656 5.64375H20.3843C20.8906 5.64375 21.2937 5.24063 21.2937 4.73438C21.2937 3.12188 22.6062 1.81875 24.2094 1.81875C25.8219 1.81875 27.125 3.13125 27.125 4.73438C27.125 5.24063 27.5281 5.64375 28.0344 5.64375H33.1531C34.4187 5.64375 35.45 6.675 35.45 7.94063V8.69063H12.95V7.94063C12.9687 6.675 14 5.64375 15.2656 5.64375ZM42.9125 58.1813H5.5156C5.01873 58.1813 4.60623 57.7687 4.60623 57.2719V9.38438C4.60623 8.8875 5.01873 8.475 5.5156 8.475H11.15V9.6C11.15 10.1062 11.5531 10.5094 12.0594 10.5094H36.3781C36.8844 10.5094 37.2875 10.1062 37.2875 9.6V8.475H42.9125C43.4094 8.475 43.8218 8.8875 43.8218 9.38438V29.2219C43.5312 29.2406 43.25 29.2688 42.9687 29.3156L42.4719 28.0594C42.2844 27.5906 41.7593 27.3656 41.2906 27.5531L38 28.8656C37.775 28.9594 37.5969 29.1281 37.5031 29.3531C37.4094 29.5781 37.4094 29.8219 37.4937 30.0469L37.9906 31.3031C36.9406 32.0344 36.0031 32.9437 35.2437 33.9844L33.9969 33.45C33.7719 33.3563 33.5281 33.3562 33.3031 33.4406C33.0781 33.5344 32.9 33.7031 32.8062 33.9281L31.4094 37.1813C31.2125 37.6406 31.4281 38.175 31.8875 38.3719L33.1344 38.9062C32.9094 40.1719 32.8906 41.475 33.0875 42.7406L31.8312 43.2375C31.6062 43.3312 31.4281 43.5 31.3343 43.725C31.2406 43.95 31.2406 44.1938 31.325 44.4188L32.6375 47.7094C32.825 48.1781 33.35 48.4031 33.8187 48.2156L35.075 47.7188C35.8062 48.7688 36.7156 49.6969 37.7562 50.4656L37.2219 51.7125C37.025 52.1719 37.2406 52.7062 37.7 52.9031L40.9531 54.3C41.1781 54.3937 41.4219 54.4031 41.6469 54.3094C41.8719 54.2156 42.05 54.0469 42.1437 53.8219L42.6781 52.575C43.0625 52.6406 43.4468 52.6875 43.8406 52.7156V57.2625C43.8218 57.7781 43.4094 58.1813 42.9125 58.1813ZM54.4719 38.8406C54.8 40.3219 54.7812 41.8875 54.4062 43.3594C54.2937 43.7906 54.5187 44.2406 54.9312 44.4188L56.0281 44.8875L55.3437 46.4719L54.2469 46.0031C53.8344 45.825 53.3656 45.975 53.1219 46.35C52.3062 47.6344 51.1812 48.7219 49.8781 49.5094C49.4937 49.7438 49.3344 50.2125 49.5031 50.625L49.9437 51.7313L48.3406 52.3688L47.9 51.2625C47.7594 50.9156 47.4219 50.6906 47.0562 50.6906C46.9906 50.6906 46.925 50.7 46.8594 50.7094C45.3687 51.0375 43.8125 51.0187 42.3312 50.6437C41.9 50.5312 41.45 50.7563 41.2719 51.1688L40.8125 52.275L39.2281 51.5906L39.6969 50.4938C39.875 50.0812 39.725 49.6125 39.35 49.3688C38.0562 48.5438 36.9687 47.4188 36.1906 46.125C35.9656 45.7406 35.4875 45.5812 35.075 45.75L33.9687 46.1906L33.3312 44.5875L34.4375 44.1469C34.85 43.9781 35.0844 43.5375 34.9906 43.1063C34.6625 41.6063 34.6812 40.0781 35.0469 38.5781C35.15 38.1469 34.9344 37.6969 34.5219 37.5281L33.425 37.0594L34.1 35.475L35.1968 35.9437C35.6094 36.1219 36.0875 35.9719 36.3218 35.5969C37.1375 34.3125 38.2531 33.225 39.5562 32.4375C39.9406 32.2031 40.1 31.7344 39.9312 31.3219L39.4906 30.225L41.0937 29.5875L41.5344 30.6844C41.7031 31.0969 42.1437 31.3312 42.575 31.2375C44.0562 30.9094 45.6219 30.9281 47.1031 31.3031C47.5344 31.4156 47.9844 31.1906 48.1625 30.7781L48.6312 29.6812L50.2156 30.3656L49.7468 31.4625C49.5687 31.875 49.7187 32.3531 50.0937 32.5875C51.3781 33.4031 52.475 34.5187 53.2531 35.8219C53.4781 36.2062 53.9562 36.3656 54.3687 36.1969L55.475 35.7562L56.1125 37.3594L55.0062 37.8C54.6031 37.9688 54.3687 38.4094 54.4719 38.8406Z" fill="#615EFC"/>
<path d="M47.8719 33.6742C45.9219 32.8304 43.7562 32.8023 41.7875 33.5898C37.7094 35.2117 35.7219 39.8523 37.3437 43.921C38.5812 47.0335 41.5812 48.9273 44.7406 48.9273C45.7156 48.9273 46.7187 48.7492 47.675 48.3648C51.7531 46.7429 53.7406 42.1023 52.1187 38.0335C51.3312 36.0554 49.8219 34.5085 47.8719 33.6742ZM47 46.6773C43.8594 47.9335 40.2781 46.396 39.0312 43.2554C37.775 40.1148 39.3125 36.5335 42.4531 35.2867C43.1937 34.9867 43.9625 34.846 44.7219 34.846C47.1594 34.846 49.475 36.3085 50.4312 38.7085C51.6781 41.8492 50.15 45.421 47 46.6773Z" fill="#615EFC"/>
</svg>

<svg xmlns="http://www.w3.org/2000/svg" width="61" height="60" fill="none" viewBox="0 0 61 60"><path fill="#615efc" d="m14.778 16.443-3.431 3.431-1.022-1.022a.905.905 0 0 0-1.284 0 .905.905 0 0 0 0 1.285l1.668 1.668a.93.93 0 0 0 1.294 0l4.069-4.078a.905.905 0 0 0 0-1.284.917.917 0 0 0-1.294 0m4.66 3.583h19.321c.507 0 .91-.403.91-.91a.904.904 0 0 0-.91-.909H19.438a.91.91 0 0 0 0 1.819m-4.66 6.674-3.431 3.432-1.022-1.022a.905.905 0 0 0-1.284 0 .905.905 0 0 0 0 1.285l1.668 1.668a.93.93 0 0 0 1.294 0l4.069-4.078a.905.905 0 0 0 0-1.284.917.917 0 0 0-1.294 0m4.66 3.579h13.865c.507 0 .91-.403.91-.91a.904.904 0 0 0-.91-.91H19.438a.91.91 0 0 0 0 1.819m-4.66 6.676-3.431 3.43-1.022-1.02a.905.905 0 0 0-1.284 0 .905.905 0 0 0 0 1.283l1.668 1.67a.93.93 0 0 0 1.294 0l4.069-4.079a.905.905 0 0 0 0-1.284.917.917 0 0 0-1.294 0m4.66 3.583h8.409c.506 0 .91-.404.91-.91a.904.904 0 0 0-.91-.91h-8.41a.91.91 0 0 0 0 1.819m-4.659 6.676-3.431 3.43-1.022-1.021a.905.905 0 0 0-1.284 0 .905.905 0 0 0 0 1.284l1.668 1.669a.93.93 0 0 0 1.294 0l4.069-4.078a.905.905 0 0 0 0-1.285.917.917 0 0 0-1.294 0m15.797 1.765H19.438a.904.904 0 0 0-.91.909c0 .506.403.91.91.91h11.137c.506 0 .91-.404.91-.91a.904.904 0 0 0-.91-.91"/><path fill="#615efc" d="m57.575 43.584-1.247-.534c.225-1.266.244-2.569.056-3.834l1.257-.497a.905.905 0 0 0 .506-1.181l-1.313-3.291a.9.9 0 0 0-.487-.497.93.93 0 0 0-.694-.01l-1.256.497a11.7 11.7 0 0 0-2.681-2.746l.534-1.247a.905.905 0 0 0-.478-1.19l-3.253-1.398a.91.91 0 0 0-1.19.478l-.535 1.247a12 12 0 0 0-1.153-.14V9.384c0-1.5-1.228-2.728-2.728-2.728h-5.85c-.544-1.64-2.072-2.831-3.891-2.831h-4.303A4.75 4.75 0 0 0 24.219 0a4.75 4.75 0 0 0-4.65 3.825h-4.303c-1.82 0-3.347 1.19-3.891 2.831h-5.86a2.737 2.737 0 0 0-2.728 2.728v47.888A2.73 2.73 0 0 0 5.516 60h37.397a2.73 2.73 0 0 0 2.728-2.728v-4.547a9 9 0 0 0 .853-.094l.497 1.257a.91.91 0 0 0 1.18.506l3.291-1.313a.905.905 0 0 0 .507-1.181l-.497-1.256a11.8 11.8 0 0 0 2.747-2.672l1.247.534a.91.91 0 0 0 1.19-.478l1.397-3.253a.905.905 0 0 0-.478-1.19m-42.31-37.94h5.12a.904.904 0 0 0 .909-.91 2.92 2.92 0 0 1 2.915-2.915 2.92 2.92 0 0 1 2.916 2.915c0 .507.403.91.91.91h5.118A2.3 2.3 0 0 1 35.45 7.94v.75h-22.5v-.75a2.33 2.33 0 0 1 2.316-2.297M42.914 58.18H5.516a.916.916 0 0 1-.91-.91V9.385c0-.497.413-.909.91-.909h5.634V9.6c0 .506.403.91.91.91h24.318c.506 0 .91-.404.91-.91V8.475h5.625c.496 0 .909.412.909.91v19.837c-.29.019-.572.047-.853.094l-.497-1.257a.905.905 0 0 0-1.181-.506L38 28.866a.9.9 0 0 0-.497.487.94.94 0 0 0-.01.694l.498 1.256a11.7 11.7 0 0 0-2.747 2.681l-1.247-.534a.94.94 0 0 0-.694-.01.9.9 0 0 0-.497.488l-1.397 3.253a.91.91 0 0 0 .479 1.19l1.246.535a11.7 11.7 0 0 0-.047 3.835l-1.256.496a.9.9 0 0 0-.497.488.94.94 0 0 0-.009.694l1.313 3.29a.905.905 0 0 0 1.18.507l1.257-.497a11.8 11.8 0 0 0 2.681 2.747l-.534 1.246a.91.91 0 0 0 .478 1.191l3.253 1.397a.905.905 0 0 0 1.19-.478l.535-1.247c.385.066.769.112 1.163.14v4.547a.94.94 0 0 1-.928.92m11.559-19.34a9.8 9.8 0 0 1-.066 4.518.91.91 0 0 0 .525 1.06l1.097.469-.684 1.584-1.097-.469a.91.91 0 0 0-1.125.347 9.95 9.95 0 0 1-3.244 3.16.904.904 0 0 0-.375 1.115l.44 1.106-1.602.638-.441-1.106a.915.915 0 0 0-1.04-.554 9.85 9.85 0 0 1-4.529-.065.91.91 0 0 0-1.06.525l-.459 1.106-1.584-.684.469-1.097a.91.91 0 0 0-.347-1.125 9.94 9.94 0 0 1-3.16-3.244.9.9 0 0 0-1.115-.375l-1.106.44-.638-1.602 1.106-.441a.92.92 0 0 0 .554-1.04 10 10 0 0 1 .056-4.529.9.9 0 0 0-.525-1.05l-1.097-.469.675-1.584 1.097.469a.904.904 0 0 0 1.125-.347 9.9 9.9 0 0 1 3.234-3.16.904.904 0 0 0 .375-1.115l-.44-1.097 1.603-.638.44 1.097a.92.92 0 0 0 1.041.553 9.86 9.86 0 0 1 4.528.066.91.91 0 0 0 1.06-.525l.468-1.097 1.585.685-.47 1.096a.904.904 0 0 0 .348 1.125 9.8 9.8 0 0 1 3.16 3.235.9.9 0 0 0 1.115.375l1.106-.44.637 1.602-1.106.441a.91.91 0 0 0-.534 1.04"/><path fill="#615efc" d="M47.872 33.674a7.87 7.87 0 0 0-6.084-.084c-4.079 1.622-6.066 6.262-4.444 10.331 1.237 3.112 4.237 5.006 7.397 5.006a7.9 7.9 0 0 0 2.934-.562c4.078-1.622 6.066-6.263 4.444-10.332a7.88 7.88 0 0 0-4.247-4.359M47 46.677c-3.14 1.257-6.722-.281-7.969-3.422-1.256-3.14.282-6.722 3.422-7.968.74-.3 1.51-.441 2.269-.441a6.15 6.15 0 0 1 5.71 3.863A6.14 6.14 0 0 1 47 46.677"/></svg>
